styleguide/source/assets/icons/svg/linkedin.svg

<svg data-name="Layer 1" xmlns="http://www.w3.org/2000/svg" viewBox="0 0 44 44"><path d="M22 0a22 22 0 1 0 22 22A22 22 0 0 0 22 0zm-6.09 31.26h-4.57V16.57h4.57v14.7zm-2.28-16.7a2.65 2.65 0 1 1 2.65-2.65 2.65 2.65 0 0 1-2.65 2.65zM33 31.26h-4.55v-7.14c0-1.7 0-3.9-2.37-3.9s-2.74 1.86-2.74 3.78v7.27h-4.56v-14.7h4.38v2h.06a4.8 4.8 0 0 1 4.32-2.37c4.62 0 5.48 3 5.48 7v8.06z"/></svg>

<svg id="Layer_1" data-name="Layer 1" xmlns="http://www.w3.org/2000/svg" viewBox="0 0 44 44"><title>AMA_icons_v01_0520</title><path d="M22,0A22,22,0,1,0,44,22,22,22,0,0,0,22,0ZM15.91,31.26H11.34V16.57h4.57v14.7Zm-2.28-16.7a2.65,2.65,0,1,1,2.65-2.65A2.65,2.65,0,0,1,13.63,14.56ZM33,31.26H28.45V24.12c0-1.7,0-3.9-2.37-3.9S23.34,22.08,23.34,24v7.27H18.78V16.57h4.38v2h0.06a4.8,4.8,0,0,1,4.32-2.37c4.62,0,5.48,3,5.48,7v8.06Z"/></svg>
